X: 20645
M: 2/4
L: 1/16
K: C
|:\
c2cc c2d2 | e2f2 g4 |\
c2cc c2d2 | e2f2 g4 |\
c2GG G2c2 | e2e2 c2(de) |\
f2d2A2B2 | (cB).c.e .G2(AB) |
c2GG G2c2 | e2e2 c2de |\
f2d2A2B2 | c2e2c2 z2 ::\
c2(3(E^F^G) c2(3(E^F^G) | A2B2c2A2 |\
d2c2B2A2 | ^G2A2 B4 |\
c2(3(E^F^G) c2(3(E^F^G) | A2B2c2A2 |\
d2ef e2^G2 | A2cB A4 :|


